!!!OTL: 1331. Die Fueselier.
!!!ODT: 1871
!!!ARE: Europa, Mitteleuropa, Deutschland, Hessen, Oberhessen; Nassau
!!!SCT: E1331
!!!TXL: @@DE
!!!YEM: Copyright 1995, estate of Helmut Schaffrath.
**kern	**text
*ICvox	*
*M6/8	*
*k[f#c#]	*
*D:	*
=1	=1
!LO:TX:a:t=Mel. aus dem Naſſauiſchen u. Oberheſſen. 1871.	!
{4d	Fü-
8f#	-ſe-
4a	-lier
8a	ſind
=2	=2
8bL	luſt-
8aJ	.
8a	-ge
4f#	Brü-
8d}	-der,
=3	=3
{4e	ha-
8b	-ben
4a	fro-
16bL	-hen
16aJ	.
=4	=4
[4.f#	Muth,
4f#]	.
8r}	.
=5	=5
{4d	Fü-
8f#	-ſe-
4a	-lier
8a	ſind
=6	=6
8bL	luſt-
8aJ	.
8a	-ge
4f#	Brü-
8d}	-der,
=7	=7
{4e	ha-
8b	-ben
4a	fro-
16bL	-hen
16aJ	.
=8	=8
[4.f#	Muth,
4f#]	.
8r}	.
=9	=9
{4b	und
8b	ſie
8ddL	ſin-
8cc#J	.
8b	-gen
=10	=10
4a	fro-
8dd	-he
4dd	Lie-
8f#}	-der,
=11	=11
{4e	ſind
8b	den
8.aL	Mäd-
16bJ	.
8a	-chen
=12	=12
4f#	gut,
8a	juch-
4.dd}	-he!
=13	=13
{4b	und
8b	ſie
8ddL	ſin-
8cc#J	.
8b	-gen
=14	=14
4a	fro-
8dd	-he
4dd	Lie-
8f#}	-der,
=15	=15
{4e	ſind
8b	den
8.aL	Mäd-
16bJ	.
8a	-chen
=16	=16
[4.f#	gut.
4f#]	.
8r}	.
==	==
!!!AGN: Staende -, Soldaten -, Kriegs - Lied
!!!ONB: ESAC (Essen Associative Code) Database: ERK3
!!!AMT: compound duple
!!!AIN: vox
!!!EED: Helmut Schaffrath
!!!EEV: 1.0
!!!GTL: Staendelieder (Berufslieder). 1. Soldaten- und Kriegslieder. Soldatenlieder seit dem 30jaehr. Kriege.
!!!URL-scan: https://rosdok.uni-rostock.de/mcrviewer/recordIdentifier/rosdok_ppn745177999/iview2/phys_0217.iview2?x=-128.77276441889308&y=610.8645102096489&scale=0.5870222003877485&rotation=0&layout=singlePageLayout
!!!ENC: Anna Maria Matuszewska
!!!EEV: 2024/12/27
*-	*-
